X: 123103
T: The MASON'S APRON
P: Same figure.
%R: reel
B: James Kerr "Merry Melodies" v.1 p.23 s.1 #3
Z: 2017 John Chambers <jc:trillian.mit.edu>
N: This version has only the first strain repeated; usually both are repeated.
M: C
L: 1/8
K: A
ue2 |\
cA A/A/A (AB)AF | EFAB dcBA |\
dB B/B/B (Bc)BA | Bcde gfed |\
cA A/A/A (AB)AF | EFAB dcBA |\
Bcde fefa | A/A/A (cB) A2 :|
ue2 |\
cAeA fAeA | cAeA fedc |\
dBfB gBfB | dBfB gfed |\
cAeA fAeA | cAeA fedc |\
Bcde fefa | A/A/A (cB) A2 |]

%%sep 1 1 500
%%sep 1 1 500

